X:0411
T:The Falkland Beauty
P:The Falkland Beauty
C:Traditional
R:Jig (8x24)
B:RSCDS 4-11
Z:Anselm Lingnau <anselm@strathspey.org>
M:6/8
L:1/8
K:Bb
d/e/|"Bb"fge "F7"dec|"Gm"BAB "Eb"GF"F7"E|"Bb"D2F B2c|"F"d2c "F7"cde|\
     "Bb"fge "F7"de"D7"c|"Gm"BAB "Eb"GFE|
                                         "Bb"D2F "F7"B2c|"Bb"d2B [B2D2]||\
   f|"Bb"b2B d2B|b2B d2B|"F7"A2c cdB|A2c c2f|
     "Bb"b2B d2B|b2B d2B|F2B "F7"[d2A2]B|"Bb"d2B [B2D2]|\
   e|"Bb"d2f "Eb"g2f|"Bb"d2f "Eb"g2f|
                                     g2f "Cm"e2d|"F7"d2c c3|\
     "Bb"d2f "Eb"g2f|"Bb"d2f "Eb"g2f|"Cm"[g2e2c2G2]f "F9"[g2e2c2A2]a|\
                         "Bb"[b3f3d3B3] b2:|
